www/assets/icons/edit_off.svg

<svg width="24" height="24" viewBox="0 0 24 24" xmlns="http://www.w3.org/2000/svg" fill='currentColor'><path d="M12.6353 8.1253L14.5723 6.1883L18.3193 9.9353L16.3823 11.8733L12.6353 8.1253ZM21.2193 5.6303L18.8793 3.2903C18.6919 3.10405 18.4385 2.99951 18.1743 2.99951C17.9101 2.99951 17.6566 3.10405 17.4693 3.2903L15.6393 5.1203L19.3893 8.8703L21.2193 7.0003C21.3937 6.81485 21.4907 6.56987 21.4907 6.3153C21.4907 6.06074 21.3937 5.81576 21.2193 5.6303ZM2.50928 5.0003L9.13928 11.6303L3.50928 17.2503V21.0003H7.25928L12.8893 15.3803L18.5093 21.0003L20.5093 19.0003L4.50928 3.0003L2.50928 5.0003Z"/></svg>

<svg xmlns="http://www.w3.org/2000/svg" width="24" height="24" viewBox="0 0 24 24" fill='currentColor'><path d="m12.635 8.125 1.937-1.937 3.747 3.747-1.937 1.938zM21.22 5.63l-2.34-2.34a1 1 0 0 0-1.41 0l-1.83 1.83 3.75 3.75L21.22 7a1 1 0 0 0 0-1.37M2.51 5l6.63 6.63-5.63 5.62V21h3.75l5.63-5.62L18.51 21l2-2-16-16z"/></svg>
